public/connect.svg

<svg fill="none" height="68" viewBox="0 0 254 68" width="254" xmlns="http://www.w3.org/2000/svg" xmlns:xlink="http://www.w3.org/1999/xlink"><linearGradient id="a"><stop offset=".00800497" stop-color="#38dbff"/><stop offset="1" stop-color="#243aff"/></linearGradient><linearGradient id="b" gradientUnits="userSpaceOnUse" x1="24.5696" x2="46.3131" xlink:href="#a" y1="18.9383" y2="30.0006"/><linearGradient id="c" gradientUnits="userSpaceOnUse" x1="21.3481" x2="52.0017" xlink:href="#a" y1="34.7495" y2="47.0558"/><linearGradient id="d" gradientUnits="userSpaceOnUse" x1="47.4145" x2="94.5218" xlink:href="#a" y1="25.5753" y2="123.25"/><linearGradient id="e" gradientUnits="userSpaceOnUse" x1="-17.1088" x2="113.391" xlink:href="#a" y1="14.9041" y2="191.192"/><path d="m28.81 23.9559c0-3.0053 2.8979-5.4503 6.4596-5.4503 3.5618 0 6.4596 2.445 6.4596 5.4503v5.4502h2.9701v-5.4502c0-4.3868-4.2302-7.9559-9.4297-7.9559-5.1994 0-9.4297 3.5691-9.4297 7.9559v5.4502h2.9701z" fill="url(#b)"/><path d="m44.8145 29.9072h-.1152-2.9701-12.9192-2.9701-.1291c-1.4908 0-2.7108 1.1841-2.7108 2.6312v14.7842s10.9716 10.524 24.5249 0v-14.7845c.0004-1.4468-1.2196-2.6309-2.7104-2.6309zm-6.3491 16.0996h-6.3583l1.4869-6.7522c-.893-.5278-1.4869-1.4603-1.4869-2.5234 0-1.6466 1.4232-2.9813 3.1791-2.9813 1.756 0 3.1792 1.3347 3.1792 2.9813 0 1.1636-.711 2.1706-1.7478 2.6622z" fill="url(#c)"/><path d="m68.384 43.36c4.32 0 7.776-2.88 8.424-7.152h-2.808c-.48 2.784-2.736 4.776-5.592 4.776-3.408 0-5.808-2.76-5.808-6.624 0-3.816 2.4-6.576 5.808-6.576 2.856 0 5.112 1.968 5.592 4.752h2.808c-.648-4.248-4.104-7.128-8.424-7.128-4.8 0-8.52 3.888-8.52 8.952 0 5.088 3.72 9 8.52 9zm16.3037-.12c3.6 0 6.24-2.832 6.24-6.6s-2.64-6.6-6.24-6.6-6.24 2.832-6.24 6.6 2.64 6.6 6.24 6.6zm0-2.136c-2.088 0-3.72-1.68-3.72-4.464s1.632-4.44 3.72-4.44 3.744 1.656 3.744 4.44-1.656 4.464-3.744 4.464zm11.1351-5.28c0-2.256 1.392-3.648 3.048-3.648 1.8002 0 2.7602 1.224 2.7602 3.408v7.416h2.424v-8.232c0-3.048-1.728-4.728-4.3442-4.728-1.752 0-3.192.936-4.056 2.352v-2.112h-2.256v12.72h2.424zm13.8752 0c0-2.256 1.392-3.648 3.048-3.648 1.8 0 2.76 1.224 2.76 3.408v7.416h2.424v-8.232c0-3.048-1.728-4.728-4.344-4.728-1.752 0-3.192.936-4.056 2.352v-2.112h-2.256v12.72h2.424zm16.683 7.416c3 0 5.184-1.704 5.808-4.536h-2.4c-.408 1.656-1.656 2.64-3.456 2.64-2.136 0-3.432-1.512-3.624-4.104h9.48c.432-4.128-2.088-7.2-5.88-7.2-3.504 0-6.072 2.76-6.072 6.528 0 4.008 2.472 6.672 6.144 6.672zm-.12-11.376c1.968 0 3.24 1.416 3.36 3.768h-6.888c.264-2.376 1.584-3.768 3.528-3.768zm13.287 11.4c3.192 0 5.448-2.064 5.88-5.424h-2.52c-.288 2.064-1.536 3.264-3.336 3.264-2.088 0-3.456-1.752-3.456-4.464 0-2.688 1.368-4.464 3.456-4.464 1.776 0 3.048 1.224 3.312 3.264h2.544c-.456-3.312-2.736-5.4-5.88-5.4-3.432 0-5.928 2.76-5.928 6.6 0 3.888 2.448 6.624 5.928 6.624zm15.496-2.616c-.504.24-1.008.336-1.584.336-1.296 0-2.136-.624-2.136-2.376v-6.264h3.84v-2.064h-3.84v-3.768h-2.424v3.768h-2.809v2.064h2.809v6.816c0 2.808 1.632 4.08 3.984 4.08.768 0 1.416-.12 2.16-.456zm20.768 2.352h2.737l4.488-17.232h-2.592l-3.312 13.296-3.576-13.296h-2.736l-3.624 13.272-3.312-13.272h-2.592l4.488 17.232h2.712l3.672-13.512zm16.135 0h2.016v-8.16c0-3.024-1.824-4.8-4.968-4.8-2.976 0-5.016 1.896-5.136 4.752h2.208c.072-1.776 1.152-2.832 2.928-2.832 1.68 0 2.664 1.032 2.664 2.856v.936c-1.032-.12-1.632-.144-2.376-.144-3.792 0-5.784 1.296-5.784 3.792 0 2.328 1.728 3.84 4.368 3.84 1.872 0 3.288-.792 4.08-2.208zm-6.144-3.672c0-1.488 1.2-2.208 3.624-2.208.624 0 1.296.024 2.232.144v1.032c0 1.944-1.272 3.216-3.312 3.216-1.56 0-2.544-.864-2.544-2.184zm13.848 3.672v-17.232h-2.448v17.232zm5.813 0v-17.232h-2.448v17.232zm8.596.24c3 0 5.184-1.704 5.808-4.536h-2.4c-.408 1.656-1.656 2.64-3.456 2.64-2.136 0-3.432-1.512-3.624-4.104h9.48c.432-4.128-2.088-7.2-5.88-7.2-3.504 0-6.072 2.76-6.072 6.528 0 4.008 2.472 6.672 6.144 6.672zm-.12-11.376c1.968 0 3.24 1.416 3.36 3.768h-6.888c.264-2.376 1.584-3.768 3.528-3.768zm15.635 8.784c-.504.24-1.008.336-1.584.336-1.296 0-2.136-.624-2.136-2.376v-6.264h3.84v-2.064h-3.84v-3.768h-2.424v3.768h-2.808v2.064h2.808v6.816c0 2.808 1.632 4.08 3.984 4.08.768 0 1.416-.12 2.16-.456z" fill="url(#d)"/><rect height="67" rx="19.5" stroke="url(#e)" width="253" x=".5" y=".5"/></svg>

<svg width="254" height="68" viewBox="0 0 254 68" fill="none" xmlns="http://www.w3.org/2000/svg">
<path d="M28.81 23.9559C28.81 20.9506 31.7079 18.5056 35.2696 18.5056C38.8314 18.5056 41.7292 20.9506 41.7292 23.9559V29.4061H44.6993V23.9559C44.6993 19.5691 40.4691 16 35.2696 16C30.0702 16 25.8399 19.5691 25.8399 23.9559V29.4061H28.81V23.9559Z" fill="url(#paint0_linear_613_3323)"/>
<path d="M44.8145 29.9072H44.6993H41.7292H28.81H25.8399H25.7108C24.22 29.9072 23 31.0913 23 32.5384V47.3226C23 47.3226 33.9716 57.8466 47.5249 47.3226V32.5381C47.5253 31.0913 46.3053 29.9072 44.8145 29.9072ZM38.4654 46.0068H32.1071L33.594 39.2546C32.701 38.7268 32.1071 37.7943 32.1071 36.7312C32.1071 35.0846 33.5303 33.7499 35.2862 33.7499C37.0422 33.7499 38.4654 35.0846 38.4654 36.7312C38.4654 37.8948 37.7544 38.9018 36.7176 39.3934L38.4654 46.0068Z" fill="url(#paint1_linear_613_3323)"/>
<path d="M68.384 43.36C72.704 43.36 76.16 40.48 76.808 36.208H74C73.52 38.992 71.264 40.984 68.408 40.984C65 40.984 62.6 38.224 62.6 34.36C62.6 30.544 65 27.784 68.408 27.784C71.264 27.784 73.52 29.752 74 32.536H76.808C76.16 28.288 72.704 25.408 68.384 25.408C63.584 25.408 59.864 29.296 59.864 34.36C59.864 39.448 63.584 43.36 68.384 43.36ZM84.6877 43.24C88.2877 43.24 90.9277 40.408 90.9277 36.64C90.9277 32.872 88.2877 30.04 84.6877 30.04C81.0877 30.04 78.4477 32.872 78.4477 36.64C78.4477 40.408 81.0877 43.24 84.6877 43.24ZM84.6877 41.104C82.5997 41.104 80.9677 39.424 80.9677 36.64C80.9677 33.856 82.5997 32.2 84.6877 32.2C86.7757 32.2 88.4317 33.856 88.4317 36.64C88.4317 39.424 86.7757 41.104 84.6877 41.104ZM95.8228 35.824C95.8228 33.568 97.2148 32.176 98.8708 32.176C100.671 32.176 101.631 33.4 101.631 35.584V43H104.055V34.768C104.055 31.72 102.327 30.04 99.7108 30.04C97.9588 30.04 96.5188 30.976 95.6548 32.392V30.28H93.3988V43H95.8228V35.824ZM109.698 35.824C109.698 33.568 111.09 32.176 112.746 32.176C114.546 32.176 115.506 33.4 115.506 35.584V43H117.93V34.768C117.93 31.72 116.202 30.04 113.586 30.04C111.834 30.04 110.394 30.976 109.53 32.392V30.28H107.274V43H109.698V35.824ZM126.381 43.24C129.381 43.24 131.565 41.536 132.189 38.704H129.789C129.381 40.36 128.133 41.344 126.333 41.344C124.197 41.344 122.901 39.832 122.709 37.24H132.189C132.621 33.112 130.101 30.04 126.309 30.04C122.805 30.04 120.237 32.8 120.237 36.568C120.237 40.576 122.709 43.24 126.381 43.24ZM126.261 31.864C128.229 31.864 129.501 33.28 129.621 35.632H122.733C122.997 33.256 124.317 31.864 126.261 31.864ZM139.548 43.264C142.74 43.264 144.996 41.2 145.428 37.84H142.908C142.62 39.904 141.372 41.104 139.572 41.104C137.484 41.104 136.116 39.352 136.116 36.64C136.116 33.952 137.484 32.176 139.572 32.176C141.348 32.176 142.62 33.4 142.884 35.44H145.428C144.972 32.128 142.692 30.04 139.548 30.04C136.116 30.04 133.62 32.8 133.62 36.64C133.62 40.528 136.068 43.264 139.548 43.264ZM155.044 40.648C154.54 40.888 154.036 40.984 153.46 40.984C152.164 40.984 151.324 40.36 151.324 38.608V32.344H155.164V30.28H151.324V26.512H148.9V30.28H146.091V32.344H148.9V39.16C148.9 41.968 150.532 43.24 152.884 43.24C153.652 43.24 154.3 43.12 155.044 42.784V40.648ZM175.812 43H178.549L183.037 25.768H180.445L177.133 39.064L173.557 25.768H170.821L167.197 39.04L163.885 25.768H161.293L165.781 43H168.493L172.165 29.488L175.812 43ZM191.947 43H193.963V34.84C193.963 31.816 192.139 30.04 188.995 30.04C186.019 30.04 183.979 31.936 183.859 34.792H186.067C186.139 33.016 187.219 31.96 188.995 31.96C190.675 31.96 191.659 32.992 191.659 34.816V35.752C190.627 35.632 190.027 35.608 189.283 35.608C185.491 35.608 183.499 36.904 183.499 39.4C183.499 41.728 185.227 43.24 187.867 43.24C189.739 43.24 191.155 42.448 191.947 41.032V43ZM185.803 39.328C185.803 37.84 187.003 37.12 189.427 37.12C190.051 37.12 190.723 37.144 191.659 37.264V38.296C191.659 40.24 190.387 41.512 188.347 41.512C186.787 41.512 185.803 40.648 185.803 39.328ZM199.651 43V25.768H197.203V43H199.651ZM205.464 43V25.768H203.016V43H205.464ZM214.06 43.24C217.06 43.24 219.244 41.536 219.868 38.704H217.468C217.06 40.36 215.812 41.344 214.012 41.344C211.876 41.344 210.58 39.832 210.388 37.24H219.868C220.3 33.112 217.78 30.04 213.988 30.04C210.484 30.04 207.916 32.8 207.916 36.568C207.916 40.576 210.388 43.24 214.06 43.24ZM213.94 31.864C215.908 31.864 217.18 33.28 217.3 35.632H210.412C210.676 33.256 211.996 31.864 213.94 31.864ZM229.575 40.648C229.071 40.888 228.567 40.984 227.991 40.984C226.695 40.984 225.855 40.36 225.855 38.608V32.344H229.695V30.28H225.855V26.512H223.431V30.28H220.623V32.344H223.431V39.16C223.431 41.968 225.063 43.24 227.415 43.24C228.183 43.24 228.831 43.12 229.575 42.784V40.648Z" fill="url(#paint2_linear_613_3323)"/>
<rect x="0.5" y="0.5" width="253" height="67" rx="19.5" stroke="url(#paint3_linear_613_3323)"/>
<defs>
<linearGradient id="paint0_linear_613_3323" x1="24.5696" y1="18.9383" x2="46.3131" y2="30.0006" gradientUnits="userSpaceOnUse">
<stop offset="0.00800497" stop-color="#38DBFF"/>
<stop offset="1" stop-color="#243AFF"/>
</linearGradient>
<linearGradient id="paint1_linear_613_3323" x1="21.3481" y1="34.7495" x2="52.0017" y2="47.0558" gradientUnits="userSpaceOnUse">
<stop offset="0.00800497" stop-color="#38DBFF"/>
<stop offset="1" stop-color="#243AFF"/>
</linearGradient>
<linearGradient id="paint2_linear_613_3323" x1="47.4145" y1="25.5753" x2="94.5218" y2="123.25" gradientUnits="userSpaceOnUse">
<stop offset="0.00800497" stop-color="#38DBFF"/>
<stop offset="1" stop-color="#243AFF"/>
</linearGradient>
<linearGradient id="paint3_linear_613_3323" x1="-17.1088" y1="14.9041" x2="113.391" y2="191.192" gradientUnits="userSpaceOnUse">
<stop offset="0.00800497" stop-color="#38DBFF"/>
<stop offset="1" stop-color="#243AFF"/>
</linearGradient>
</defs>
</svg>
